X: 15177
T: Gillan's Apples
R: jig
M: 6/8
K: Gmajor
G3 B,2 A,|G,A,G, G,B,D|EGE EDB,|DB,A, A,B,C|
DGG GDB,|G,B,D G2 A|BAG FGE|1 ED^C DEF:|2 ED^C D2 E||
|:FAA FAA|FAA AGF|GBB GBB|GBB BAG|
FAA FAA|FAA AFA|BAG FGE|1 ED^C D2 E:|2 ED^C DEF||

